assets/Radioactive/Flat/radioactive_flat.svg

<svg width="32" height="32" viewBox="0 0 32 32" fill="none" xmlns="http://www.w3.org/2000/svg">
<path d="M16 30C8.27 30 2 23.73 2 16C2 8.27 8.27 2 16 2C23.73 2 30 8.27 30 16C30 23.73 23.73 30 16 30Z" fill="#FFB02E"/>
<path d="M21.6126 6.27873L17.9245 12.6669C17.8282 12.8331 17.8776 13.0425 18.0338 13.1544C18.8332 13.7269 19.3826 14.6269 19.4832 15.6569C19.502 15.8506 19.662 16 19.8563 16H27.2251C27.6595 16 28.0026 15.6325 27.9738 15.1987C27.722 11.3769 25.6801 8.04373 22.6795 6.02935C22.3195 5.7881 21.8295 5.9031 21.6126 6.27873Z" fill="black"/>
<path d="M10.3875 6.27874L14.0756 12.6669C14.1712 12.8331 14.1218 13.0425 13.9656 13.1544C13.1662 13.7269 12.6168 14.6269 12.5162 15.6569C12.4975 15.8506 12.3381 16 12.1431 16H4.77497C4.34059 16 3.99747 15.6325 4.02622 15.1987C4.27809 11.3769 6.31997 8.04374 9.32122 6.02999C9.68059 5.78812 10.1706 5.90312 10.3875 6.27874Z" fill="black"/>
<path d="M18 16C18 17.1046 17.1046 18 16 18C14.8954 18 14 17.1046 14 16C14 14.8954 14.8954 14 16 14C17.1046 14 18 14.8954 18 16Z" fill="black"/>
<path d="M17.4512 19.1837C17.6256 19.1043 17.8324 19.1743 17.9287 19.3406L21.6137 25.7225C21.8299 26.0975 21.6856 26.5787 21.2974 26.77C19.6999 27.5575 17.9018 28 15.9999 28C14.0981 28 12.2999 27.5575 10.7024 26.7706C10.3137 26.5787 10.1699 26.0981 10.3862 25.7231L14.0712 19.3406C14.1674 19.1737 14.3743 19.1037 14.5487 19.1837C14.9912 19.3862 15.4824 19.5 15.9999 19.5C16.5174 19.5 17.0087 19.3862 17.4512 19.1837Z" fill="black"/>
</svg>

<svg xmlns="http://www.w3.org/2000/svg" width="32" height="32" fill="none"><path fill="#FFB02E" d="M16 30C8.27 30 2 23.73 2 16S8.27 2 16 2s14 6.27 14 14-6.27 14-14 14Z"/><path fill="#000" d="m21.613 6.279-3.689 6.388a.37.37 0 0 0 .11.487 3.499 3.499 0 0 1 1.45 2.503.377.377 0 0 0 .372.343h7.37a.75.75 0 0 0 .748-.801 11.992 11.992 0 0 0-5.294-9.17.75.75 0 0 0-1.067.25ZM10.387 6.279l3.689 6.388a.372.372 0 0 1-.11.487 3.499 3.499 0 0 0-1.45 2.503.376.376 0 0 1-.373.343H4.775a.75.75 0 0 1-.749-.801A11.989 11.989 0 0 1 9.321 6.03a.75.75 0 0 1 1.066.249ZM18 16a2 2 0 1 1-4 0 2 2 0 0 1 4 0ZM17.451 19.184a.375.375 0 0 1 .478.157l3.685 6.381a.75.75 0 0 1-.317 1.048A11.947 11.947 0 0 1 16 28c-1.902 0-3.7-.442-5.298-1.23a.75.75 0 0 1-.316-1.047l3.685-6.382a.374.374 0 0 1 .478-.157 3.478 3.478 0 0 0 2.902 0Z"/></svg>
